static/images/futurice.svg

<svg height="206" viewBox="0 0 960 206" width="960" xmlns="http://www.w3.org/2000/svg"><g fill="#349c4a" fill-rule="evenodd"><path d="m635.7 65.9h37.4v136.4h-37.4zm-437.3 0v73.7c0 18.1-8.3 28.7-24.9 28.7s-24.9-10.6-24.9-28.7v-73.7h-37.8v83.1c0 35.1 26.1 55.9 63.1 55.9s63.1-20.9 63.1-55.9v-83.1zm262.7 0v73.7c0 18.1-8.3 28.7-24.9 28.7s-24.9-10.6-24.9-28.7v-73.7h-37.8v83.1c0 35.1 26.1 55.9 63.1 55.9s63.1-20.8 63.1-55.9v-83.1z"/><circle cx="653.8" cy="23.8" r="23.8"/><path d="m522.3 65.9v136.4h37.4v-102.8h52.2v-33.6zm396.5 93.8c-6.8 7.6-16.3 12.5-27.2 12.5h-.4c-19.7 0-31.7-9.8-36.3-24.9h105.1v-13.7c0-39.3-28.7-70.7-70.3-70.7-39.3 0-71.1 31.7-71.1 71.1s29.5 71.1 71.8 71.1h.8c21.9 0 39.3-8.3 51.4-20.8zm-28.7-63.9c15.9 0 27.6 7.2 32.5 21.5h-66.1c5.6-12.8 17.7-21.5 33.6-21.5zm-102.8 63.9c-6.4 6-14.7 9.8-24.2 9.8h-.8c-19.3-.4-34-15.9-34-35.5 0-19.3 14.7-35.1 34-35.5h.8c10.2 0 18.9 4.5 25.3 11.3l25.7-25.7c-12.5-13.2-30.2-21.2-51.4-21.2h-.4c-38.9.4-69.9 31.7-69.9 70.7s31 70.7 69.9 70.7h.4c20 0 37.4-7.6 49.9-19.7zm-490.2-93.8v-51h-37.4v127.8c0 44.6 14.4 59.3 57.4 59.3h32.1v-34.8h-26.8c-23.1 0-25.7-3.4-25.7-24.6v-43h52.5v-33.6c0-.1-52.1-.1-52.1-.1zm-259.7-9c0-12.9 7.9-20.4 18.5-20.4 6.8 0 12.1 3.8 14.7 7.9l22.7-22.7c-11.7-16.3-27.2-21.5-42.3-21.5-27.6 0-50.3 24.2-51 56.3v145.9h37.4v-104h48.4v-32.5h-48.4z"/></g></svg>

<svg xmlns="http://www.w3.org/2000/svg" width="960" height="206" viewBox="0 0 960 206"><title>futurice-logo--green</title><desc>Created with Sketch.</desc><g fill="#349C4A" fill-rule="evenodd"><path d="M635.7 65.9h37.4v136.4h-37.4V65.9zM198.4 65.9v73.7c0 18.1-8.3 28.7-24.9 28.7-16.6 0-24.9-10.6-24.9-28.7V65.9h-37.8V149c0 35.1 26.1 55.9 63.1 55.9S237 184 237 149V65.9h-38.6zM461.1 65.9v73.7c0 18.1-8.3 28.7-24.9 28.7-16.6 0-24.9-10.6-24.9-28.7V65.9h-37.8V149c0 35.1 26.1 55.9 63.1 55.9s63.1-20.8 63.1-55.9V65.9h-38.6z"/><circle cx="653.8" cy="23.8" r="23.8"/><path d="M522.3 65.9v136.4h37.4V99.5h52.2V65.9h-89.6zM918.8 159.7c-6.8 7.6-16.3 12.5-27.2 12.5h-.4c-19.7 0-31.7-9.8-36.3-24.9H960v-13.7c0-39.3-28.7-70.7-70.3-70.7-39.3 0-71.1 31.7-71.1 71.1 0 39.4 29.5 71.1 71.8 71.1h.8c21.9 0 39.3-8.3 51.4-20.8l-23.8-24.6zm-28.7-63.9c15.9 0 27.6 7.2 32.5 21.5h-66.1c5.6-12.8 17.7-21.5 33.6-21.5zM787.3 159.7c-6.4 6-14.7 9.8-24.2 9.8h-.8c-19.3-.4-34-15.9-34-35.5 0-19.3 14.7-35.1 34-35.5h.8c10.2 0 18.9 4.5 25.3 11.3l25.7-25.7c-12.5-13.2-30.2-21.2-51.4-21.2h-.4c-38.9.4-69.9 31.7-69.9 70.7s31 70.7 69.9 70.7h.4c20 0 37.4-7.6 49.9-19.7l-25.3-24.9zM297.1 65.9v-51h-37.4V142.7c0 44.6 14.4 59.3 57.4 59.3h32.1v-34.8h-26.8c-23.1 0-25.7-3.4-25.7-24.6v-43h52.5V66c0-.1-52.1-.1-52.1-.1zM37.4 56.9c0-12.9 7.9-20.4 18.5-20.4 6.8 0 12.1 3.8 14.7 7.9l22.7-22.7C81.6 5.4 66.1.2 51 .2 23.4.2.7 24.4 0 56.5v145.9h37.4v-104h48.4V65.9H37.4v-9z"/></g></svg>
